packages/core/assets/Icons/power_settings.svg

<svg viewBox="0 0 20 20" fill="none" xmlns="http://www.w3.org/2000/svg">
<path d="M9.99984 18.3334C8.84706 18.3334 7.76373 18.1146 6.74984 17.6771C5.73595 17.2396 4.854 16.6459 4.104 15.8959C3.354 15.1459 2.76025 14.2639 2.32275 13.25C1.88525 12.2361 1.6665 11.1528 1.6665 10C1.6665 8.98613 1.83664 8.02433 2.17692 7.1146C2.5172 6.20488 2.98595 5.38891 3.58317 4.66669C3.73595 4.47224 3.91998 4.38196 4.13525 4.39585C4.35053 4.40974 4.53456 4.48613 4.68734 4.62502C4.84011 4.76391 4.94081 4.94446 4.98942 5.16669C5.03803 5.38891 4.96511 5.61808 4.77067 5.85419C4.32623 6.42363 3.97553 7.05905 3.71859 7.76044C3.46164 8.46183 3.33317 9.20835 3.33317 10C3.33317 11.8611 3.979 13.4375 5.27067 14.7292C6.56234 16.0209 8.13873 16.6667 9.99984 16.6667C11.8609 16.6667 13.4373 16.0209 14.729 14.7292C16.0207 13.4375 16.6665 11.8611 16.6665 10C16.6665 9.20835 16.538 8.46183 16.2811 7.76044C16.0241 7.05905 15.6734 6.42363 15.229 5.85419C15.0346 5.61808 14.9616 5.38891 15.0103 5.16669C15.0589 4.94446 15.1596 4.76391 15.3123 4.62502C15.4651 4.48613 15.6491 4.40974 15.8644 4.39585C16.0797 4.38196 16.2637 4.47224 16.4165 4.66669C17.0137 5.38891 17.4825 6.20488 17.8228 7.1146C18.163 8.02433 18.3332 8.98613 18.3332 10C18.3332 11.1528 18.1144 12.2361 17.6769 13.25C17.2394 14.2639 16.6457 15.1459 15.8957 15.8959C15.1457 16.6459 14.2637 17.2396 13.2498 17.6771C12.2359 18.1146 11.1526 18.3334 9.99984 18.3334ZM9.99984 10.8334C9.76373 10.8334 9.56581 10.7535 9.40609 10.5938C9.24636 10.434 9.1665 10.2361 9.1665 10V2.50002C9.1665 2.26391 9.24636 2.06599 9.40609 1.90627C9.56581 1.74655 9.76373 1.66669 9.99984 1.66669C10.2359 1.66669 10.4339 1.74655 10.5936 1.90627C10.7533 2.06599 10.8332 2.26391 10.8332 2.50002V10C10.8332 10.2361 10.7533 10.434 10.5936 10.5938C10.4339 10.7535 10.2359 10.8334 9.99984 10.8334Z" fill="currentColor"/>
</svg>

<svg xmlns="http://www.w3.org/2000/svg" width="20" height="20" fill="none" viewBox="0 0 20 20">
  <path fill="#201F1F" d="M10 18.333a8.115 8.115 0 0 1-3.25-.656 8.415 8.415 0 0 1-2.646-1.781 8.416 8.416 0 0 1-1.781-2.646A8.115 8.115 0 0 1 1.667 10c0-1.014.17-1.976.51-2.885a8.46 8.46 0 0 1 1.406-2.448c.153-.195.337-.285.552-.271.216.014.4.09.552.229.153.139.254.32.302.542.049.222-.024.451-.218.687A6.976 6.976 0 0 0 3.719 7.76 6.46 6.46 0 0 0 3.333 10c0 1.861.646 3.438 1.938 4.73 1.291 1.29 2.868 1.937 4.729 1.937 1.86 0 3.437-.646 4.729-1.938 1.292-1.291 1.938-2.868 1.938-4.729a6.46 6.46 0 0 0-.386-2.24 6.978 6.978 0 0 0-1.052-1.906c-.194-.236-.267-.465-.219-.687a.999.999 0 0 1 .302-.542.88.88 0 0 1 .552-.23c.216-.013.4.077.552.272a8.461 8.461 0 0 1 1.407 2.448c.34.91.51 1.871.51 2.885a8.115 8.115 0 0 1-.656 3.25 8.416 8.416 0 0 1-1.781 2.646 8.416 8.416 0 0 1-2.646 1.781 8.115 8.115 0 0 1-3.25.656Zm0-7.5a.806.806 0 0 1-.594-.24.807.807 0 0 1-.24-.593V2.5c0-.236.08-.434.24-.594.16-.16.358-.24.594-.24s.434.08.594.24c.16.16.24.358.24.594V10c0 .236-.08.434-.24.594a.806.806 0 0 1-.594.24Z"/>
</svg>
